lib/svgs/team-briefcase.svg

<svg xmlns="http://www.w3.org/2000/svg" viewBox="0 0 20 20">
    <path fill="#000" fill-rule="evenodd" d="M16.75 13.625h-5c0 .375-.25.625-.625.625h-1.25c-.375 0-.625-.25-.625-.625h-5c-.375 0-.625.25-.625.625v1.875c0 .375.25.625.625.625h12.5c.375 0 .625-.25.625-.625V14.25c0-.375-.25-.625-.625-.625m.625-8.75h-3.75v-1.25c0-.375-.25-.625-.625-.625H8c-.375 0-.625.25-.625.625v1.25h-3.75c-.375 0-.625.25-.625.625v6.25c0 .375.25.625.625.625H9.25v-.625c0-.375.25-.625.625-.625h1.25c.375 0 .625.25.625.625v.625h5.625c.375 0 .625-.25.625-.625V5.5c0-.375-.25-.625-.625-.625"/>
</svg>

<?xml version="1.0" encoding="UTF-8" standalone="no"?>
<svg width="20px" height="20px" viewBox="0 0 20 20" version="1.1" xmlns="http://www.w3.org/2000/svg" xmlns:xlink="http://www.w3.org/1999/xlink">
    <defs></defs>
    <g id="Icons" stroke="none" stroke-width="1" fill="none" fill-rule="evenodd">
        <g id="Web" transform="translate(-385.000000, -2392.000000)" fill="#000000">
            <g id="team/team-briefcase" transform="translate(385.000000, 2392.000000)">
                <path d="M16.75,13.625 L11.75,13.625 C11.75,14 11.5,14.25 11.125,14.25 L9.875,14.25 C9.5,14.25 9.25,14 9.25,13.625 L4.25,13.625 C3.875,13.625 3.625,13.875 3.625,14.25 L3.625,16.125 C3.625,16.5 3.875,16.75 4.25,16.75 L16.75,16.75 C17.125,16.75 17.375,16.5 17.375,16.125 L17.375,14.25 C17.375,13.875 17.125,13.625 16.75,13.625 L16.75,13.625 M17.375,4.875 L13.625,4.875 L13.625,3.625 C13.625,3.25 13.375,3 13,3 L8,3 C7.625,3 7.375,3.25 7.375,3.625 L7.375,4.875 L3.625,4.875 C3.25,4.875 3,5.125 3,5.5 L3,11.75 C3,12.125 3.25,12.375 3.625,12.375 L9.25,12.375 L9.25,11.75 C9.25,11.375 9.5,11.125 9.875,11.125 L11.125,11.125 C11.5,11.125 11.75,11.375 11.75,11.75 L11.75,12.375 L17.375,12.375 C17.75,12.375 18,12.125 18,11.75 L18,5.5 C18,5.125 17.75,4.875 17.375,4.875 L17.375,4.875" id="Shape"></path>
            </g>
        </g>
    </g>
</svg>
